usr/share/icons/biglinux-icons-material/24/actions/document-save-as.svg

<svg xmlns="http://www.w3.org/2000/svg" viewBox="0 0 24 24">
  <defs id="defs3051">
    <style type="text/css" id="current-color-scheme">
      .ColorScheme-Text {
        color:#dedede;
      }
      </style>
  </defs>
 <path 
    style="fill:currentColor;fill-opacity:1;stroke:none" 
    d="M 2 2.9980469 L 2 3 L 2 4 L 2 19 L 3 19 L 11 19 L 11 18 L 6 18 L 6 12 L 11 12 L 11 11 L 6 11 L 5 11 L 5 18 L 3 18 L 3 4 L 6 4 L 6 8 L 6 9 L 14 9 L 14 8 L 14 4 L 14.292969 4 L 17 6.7070312 L 17 7 L 17 10 L 18 10 L 18 7 L 18 6.3007812 L 17.992188 6.3007812 L 18 6.2910156 L 14.707031 2.9980469 L 14.699219 3.0078125 L 14.699219 2.9980469 L 14 2.9980469 L 2 2.9980469 z M 7 4 L 10.900391 4 L 10.900391 8 L 7 8 L 7 4 z M 18 11 L 17.003906 11.994141 L 17 11.994141 L 12 16.992188 L 12.007812 17.001953 L 12.003906 18.005859 L 12 18.005859 L 12 18.996094 L 12 19.005859 L 14 19.005859 L 14.005859 18.996094 L 14.009766 18.996094 L 14.019531 18.996094 L 14.013672 18.986328 L 15 18 L 19 14.003906 L 18.294922 13.294922 L 13.304688 18.28125 L 12.710938 17.689453 L 17.703125 12.701172 L 18.294922 13.294922 L 19 13.998047 L 20 12.998047 L 18 11 z "
    class="ColorScheme-Text"
     transform="translate(1,1)"
    />  
</svg>

<svg xmlns="http://www.w3.org/2000/svg" viewBox="0 0 24 24"><path d="M2 2.998V19h9v-1H6v-6h5v-1H5v7H3V4h3v5h8V4h.293L17 6.707V10h1V6.3h-.008L18 6.292l-3.293-3.293-.008.01v-.01H2zM7 4h3.9v4H7V4zm11 7-.996.994H17l-5 4.998.008.01-.004 1.004H12v1h2l.006-.01h.014l-.006-.01L15 18l4-3.996-.705-.71-4.99 4.987-.594-.592 4.992-4.988.592.594.705.703 1-1L18 11z" style="fill:currentColor;fill-opacity:1;stroke:none;color:#dedede" transform="translate(1 1)"/></svg>
